app/img/main/logo_sulpak.svg

<svg width="143" height="39" viewBox="0 0 143 39" fill="none" xmlns="http://www.w3.org/2000/svg">
<path d="M0.35791 20.7038H10.411C10.609 22.1445 10.7987 22.473 11.4071 23.2276C12.3972 24.4488 13.1715 24.7925 15.0106 24.7925C16.3829 24.7925 17.5469 24.5337 18.2896 23.9095C19.0323 23.2854 19.0299 22.8818 19.0299 22.0585C19.0299 21.2765 18.8897 20.6833 18.1824 20.066C17.4751 19.4486 15.834 18.8656 13.2593 18.3167C9.04383 17.3975 6.03765 16.1762 4.24109 14.6533C2.43023 13.1304 1.52495 11.1888 1.52495 8.82916C1.52495 7.27887 1.98831 5.81404 2.91473 4.43528C3.84145 3.05651 5.23481 1.97256 7.0951 1.18342C8.95539 0.394571 11.5051 0 14.7447 0C18.7199 0 21.7508 0.716779 23.8374 2.15064C25.924 3.58449 27.1652 6.37984 27.5616 9.50812H18.5007C18.2601 8.1499 17.7545 7.96259 16.9835 7.34498C16.2125 6.72766 15.1479 6.41885 13.79 6.41885C12.6724 6.41885 12.2576 6.48853 11.6918 6.94832C11.0349 7.77231 10.8032 8.84762 11.383 9.44201C11.8356 9.83986 12.6438 10.0504 14.3415 10.3932C18.543 11.2713 21.5525 12.1596 23.3705 13.0584C25.1882 13.9571 26.511 15.0717 27.3385 16.4028C28.1661 17.7337 28.5797 19.2223 28.58 20.8688C28.58 22.8032 28.0282 24.587 26.9249 26.2198C25.8216 27.8526 24.2796 29.0908 22.299 29.9347C20.3184 30.7786 17.8218 31.2003 14.8084 31.2003C9.51762 31.2003 5.85391 30.2125 3.81674 28.2367C1.77956 26.2609 0.626814 23.7499 0.35791 20.7038ZM52.9321 30.6854H44.8685V27.1456C43.666 28.6 42.4531 29.6357 41.2292 30.2533C40.0056 30.8706 38.5024 31.1795 36.7201 31.1795C34.3434 31.1795 32.4799 30.4901 31.1288 29.111C29.7777 27.7322 29.1023 25.609 29.1023 22.7413V8.82886H37.7811V20.8479C37.7811 22.2199 38.0429 23.1942 38.5661 23.7705C39.0896 24.3467 39.8251 24.6349 40.773 24.6349C41.8057 24.6349 42.6509 24.2508 43.3087 23.4825C43.9665 22.7142 44.2953 21.3351 44.2953 19.3459V8.82916H52.9318L52.9321 30.6854ZM54.8337 0.514282H63.4914V30.6854H54.8337V0.514282ZM65.7212 39V8.82886H73.8059V12.0599C74.9235 10.7017 75.9491 9.78238 76.8827 9.30205C78.1417 8.65734 79.5351 8.33483 81.063 8.33483C84.0761 8.33483 86.4069 9.45303 88.0548 11.6894C89.7028 13.9258 90.5268 16.6905 90.5268 19.9835C90.5268 23.6195 89.6283 26.3943 87.8318 28.3082C86.0352 30.2221 83.7646 31.1792 81.0205 31.1792C79.6908 31.1792 78.4776 30.9597 77.3812 30.5204C76.2847 30.0815 75.3053 29.4296 74.4423 28.5652V38.9994L65.7212 39ZM74.3789 19.8188C74.3789 21.5475 74.7538 22.8303 75.5036 23.6674C76.2534 24.5045 77.201 24.9229 78.3469 24.9229C79.3513 24.9229 80.1929 24.5215 80.8722 23.7189C81.5511 22.9164 81.8906 21.5546 81.8906 19.6336C81.8906 17.8635 81.5368 16.5636 80.8296 15.7334C80.1223 14.9035 79.2593 14.4884 78.2409 14.4884C77.1376 14.4884 76.218 14.9067 75.4825 15.7438C74.7469 16.5809 74.3789 17.9391 74.3789 19.8188Z" fill="white"/>
<path d="M99.7944 15.1615L90.9528 15.065C91.264 13.6654 91.713 12.5645 92.3003 11.7619C92.8872 10.9594 93.7326 10.2628 94.8359 9.67292C95.6281 9.24768 96.7174 8.91832 98.1039 8.68515C99.4901 8.45198 100.99 8.33525 102.602 8.33525C105.191 8.33525 107.27 8.47581 108.841 8.75722C110.411 9.03863 111.72 9.62498 112.767 10.5169C113.502 11.1342 114.082 12.0091 114.507 13.141C114.931 14.2729 115.143 15.3533 115.143 16.3824V26.0347C115.143 27.0638 115.211 27.8696 115.345 28.453C115.479 29.0361 115.773 29.7806 116.226 30.6861H108.12C107.794 30.1236 107.582 29.6948 107.483 29.4C107.384 29.1049 107.285 28.6418 107.186 28.0108C106.054 29.0674 104.93 29.822 103.812 30.2746C102.284 30.8782 100.509 31.1802 98.4859 31.1802C95.7981 31.1802 93.7576 30.5766 92.364 29.369C90.9706 28.1615 90.2738 26.6728 90.2738 24.9031C90.2738 23.2429 90.7759 21.8778 91.7803 20.8076C92.7848 19.7373 94.6379 18.9416 97.3398 18.4202C100.579 17.7892 102.68 17.3467 103.642 17.0926C104.604 16.8389 105.622 16.506 106.697 16.0945C106.697 15.0653 106.158 13.8649 105.72 13.4531C105.281 13.0415 104.83 12.9957 103.727 12.9957C102.312 12.9957 101.785 13.1085 101.078 13.5475C100.526 13.8905 100.134 14.2148 99.7944 15.1615ZM106.591 20.74C105.403 21.1515 104.485 21.3552 103.198 21.6706C101.444 22.1232 100.6 22.5693 100.133 23.0082C99.6524 23.4609 99.3052 23.7086 99.3052 24.2849C99.3052 24.9436 99.5422 25.2685 100.016 25.6869C100.49 26.1052 100.866 26.3146 101.786 26.3146C102.748 26.3146 103.376 26.1949 104.203 25.7422C105.031 25.2896 105.618 24.7905 105.964 24.1389C106.311 23.4874 106.538 23.0669 106.538 22.0243L106.591 20.74ZM116.991 0.514404H125.818V16.0733L131.308 8.82899H141.939L133.855 16.4849L142.406 30.6855H132.666L127.57 22.7721L125.818 25.0052V30.6855H116.991L116.991 0.514404Z" fill="white"/>
</svg>

<svg width="143" height="39" fill="none" xmlns="http://www.w3.org/2000/svg"><path d="M.358 20.704H10.41c.198 1.44.388 1.769.996 2.524.99 1.22 1.764 1.564 3.604 1.564 1.372 0 2.536-.258 3.279-.883.742-.624.74-1.027.74-1.85 0-.783-.14-1.376-.848-1.993-.707-.617-2.348-1.2-4.923-1.75-4.215-.918-7.221-2.14-9.018-3.663-1.81-1.523-2.716-3.464-2.716-5.824 0-1.55.463-3.015 1.39-4.394.926-1.378 2.32-2.462 4.18-3.252C8.955.395 11.505 0 14.745 0c3.975 0 7.006.717 9.092 2.15 2.087 1.434 3.328 4.23 3.725 7.358H18.5c-.24-1.358-.747-1.545-1.518-2.163-.77-.617-1.835-.926-3.193-.926-1.118 0-1.532.07-2.098.53-.657.823-.889 1.899-.309 2.493.453.398 1.26.608 2.959.951 4.201.878 7.21 1.767 9.028 2.665 1.818.9 3.141 2.014 3.968 3.345.828 1.33 1.242 2.82 1.242 4.466 0 1.934-.552 3.718-1.655 5.35-1.103 1.634-2.645 2.872-4.626 3.716-1.98.844-4.477 1.265-7.49 1.265-5.291 0-8.955-.988-10.992-2.963C1.78 26.26.627 23.75.357 20.704zm52.574 9.981h-8.064v-3.54c-1.202 1.455-2.415 2.49-3.639 3.108-1.223.618-2.727.927-4.509.927-2.377 0-4.24-.69-5.591-2.069s-2.027-3.502-2.027-6.37V8.83h8.68v12.019c0 1.372.26 2.346.784 2.922.524.577 1.26.865 2.207.865 1.033 0 1.878-.384 2.536-1.152.658-.769.986-2.148.986-4.137V8.829h8.637v21.856zM54.834.515h8.657v30.17h-8.657V.515zM65.72 39V8.829h8.085v3.23c1.118-1.357 2.143-2.277 3.077-2.757 1.259-.645 2.652-.967 4.18-.967 3.013 0 5.344 1.118 6.992 3.354 1.648 2.237 2.472 5.002 2.472 8.294 0 3.636-.899 6.411-2.695 8.325-1.797 1.914-4.067 2.871-6.811 2.871-1.33 0-2.543-.22-3.64-.659a8.678 8.678 0 01-2.939-1.955V39l-8.72.001zm8.658-19.181c0 1.729.375 3.011 1.125 3.848.75.837 1.697 1.256 2.843 1.256 1.004 0 1.846-.401 2.525-1.204.68-.803 1.019-2.164 1.019-4.085 0-1.77-.354-3.07-1.061-3.9-.708-.83-1.57-1.246-2.59-1.246-1.102 0-2.022.419-2.757 1.256-.736.837-1.104 2.195-1.104 4.075z" fill="#fff"/><path d="M99.794 15.162l-8.841-.097c.311-1.4.76-2.5 1.347-3.303.587-.803 1.433-1.5 2.536-2.09.792-.424 1.881-.754 3.268-.987a27.158 27.158 0 014.498-.35c2.589 0 4.668.14 6.239.422 1.57.282 2.879.868 3.926 1.76.735.617 1.315 1.492 1.74 2.624.424 1.132.636 2.212.636 3.241v9.653c0 1.029.068 1.835.202 2.418.134.583.428 1.328.881 2.233h-8.106c-.326-.562-.538-.991-.637-1.286-.099-.295-.198-.758-.297-1.39-1.132 1.057-2.256 1.812-3.374 2.265-1.528.603-3.303.905-5.326.905-2.688 0-4.728-.603-6.122-1.811-1.393-1.207-2.09-2.696-2.09-4.466 0-1.66.502-3.025 1.506-4.095 1.005-1.07 2.858-1.866 5.56-2.388 3.239-.63 5.34-1.073 6.302-1.327.962-.254 1.98-.587 3.055-.998 0-1.03-.539-2.23-.977-2.642-.439-.412-.89-.457-1.993-.457-1.415 0-1.942.112-2.649.551-.552.343-.944.668-1.284 1.614zm6.797 5.578c-1.188.412-2.106.615-3.393.93-1.754.453-2.598.9-3.065 1.338-.48.453-.828.7-.828 1.277 0 .659.237.983.711 1.402.474.418.85.628 1.77.628.962 0 1.59-.12 2.417-.573.828-.452 1.415-.951 1.761-1.603.347-.652.574-1.072.574-2.115l.053-1.284zm10.4-20.226h8.827v15.56l5.49-7.245h10.631l-8.084 7.656 8.551 14.2h-9.74l-5.096-7.913-1.752 2.233v5.68h-8.827V.515z" fill="#fff"/></svg>
